X:1
T:Title
%%score { 1 | 2 }
L:1/8
M:4/4
K:A
V:1 treble nm="Grand Piano"
V:2 bass 
V:1
 z4 z2[Q:1/4=100] E2 | [CA]3 [CE] [Ec]3 [DB] | [CA]2 C>[CF] [A,CE]2 E2 | E2 ^E2 F2 =G2 | %4
[M:3/4] G6 |[M:1/4] E2 |[M:4/4] [CA]3 [CE] [Ec]3 [DB] | [CA]2 C>[CF] [CE]2 [Ec]2 | %8
 [EB]2 [EG]>B, C2 [^DG]2 |[M:3/4] E6 |[M:1/4] E2 |[M:4/4] E3 ^E F3 E | E2 ^E2 F2 G2 | %13
 [DB]2 [CA]2 [Ec]2 [CA]2 |[M:3/4] [CE]6 |[M:1/4] [E,E]2 |[M:4/4] [Gd]2 [=Gd]2 d2 d2 | d6 d2 | %18
 e2 e2 e2 e2 | e6 E2 | E3 ^E F3 E | E2 ^E2 F2 G2 | [DB]2 [CA]2 [Ec]2 [CA]2 |[M:3/4] [CE]6 | %24
[M:1/4] c2 |[M:4/4] e2 c2 B2 ^A2 | [FB]2 [Fc]2 [Fd]2 [A^d]2 | [Ae]3 E B3 E |[M:3/4] [CA]6 |] %29
V:2
 z4 z2 E,2 | [A,,A,]3 [A,,A,] [A,,A,]3 [A,,A,] | [A,,A,]2 [A,,E,]>[A,,E,] A,,2 E,2 | %3
 [G,B,D]2 [=G,B,D]2 [F,B,D]2 [^E,B,D]2 |[M:3/4] [E,B,D]6 |[M:1/4] [E,G,]2 | %6
[M:4/4] [A,,A,]3 [A,,A,] [A,,A,]3 [A,,A,] | [A,,A,]2 [A,,E,]>[A,,E,] [A,,A,]2 [^A,,=G,]2 | %8
 [B,,G,]2 [B,,B,]>[B,,G,] [B,,A,]2 [B,,B,]2 |[M:3/4] [E,G,]6 |[M:1/4] [E,G,D]2 | %11
[M:4/4] [E,G,D]3 [E,G,D] [E,G,D]3 [E,G,D] | [E,G,D]2 [E,G,D]2 [E,G,D]2 [E,B,D]2 | %13
 [A,,A,]2 [A,,A,]2 [A,,A,]2 [A,,A,]2 |[M:3/4] [A,,A,]6 |[M:1/4] z2 | %16
[M:4/4] [E,B,]2 [^E,B,]2[K:treble] [F,B,F]2 [=G,B,^E]2 | [G,B,E]6 [G,B,E]2 | %18
 [A,CA]2 [A,CA]2 [B,DG]2 [B,DG]2 | [CEA]6[K:bass] [E,G,D]2 | [E,G,D]3 [E,G,D] [E,G,D]3 [E,G,D] | %21
 [E,G,D]2 [E,G,D]2 [E,G,D]2 [E,G,D]2 | [A,,A,]2 [A,,A,]2 [A,,A,]2 [A,,A,]2 |[M:3/4] [A,,A,]6 | %24
[M:1/4] [A,E]2 |[M:4/4] [A,CE]2 [A,E]2 [=G,CE]2 [F,CE]2 | [D,B,]2 [C,^A,]2 [B,,B,]2 [B,,B,]2 | %27
 [E,C]3 [E,A,C] [E,G,D]3 [E,G,D] |[M:3/4] [A,,A,]6 |] %29

